X:153
T:Steirer
C:traditionell
R:Steirer
A:Bad Ischl, Salzkammergut
B:"Pfeifermusik aus Bad Ischl", Lois Blamberger, 3. Auflage, Bad Ischl 1990
S:im buch mit der Angabe: aus der Sammlung vom Blamberger Lois
N:im buch in D, nr. 4/1
Z:abc transcription Simon Wascher
M:3/4
L:1/8
K:D
V:1
P:1
(FA dF Ad) | c2 (EA c2) | (EAc EAc) | d2 (FA d2) |\
(FA dF Ad) | c2 (EA c2) | (EA cE Ac) | d4 :|
V:2
(Ad fa Aa) | ""e2 (Ac e2) | (Ac ea Aa) | ""f2 (Ad f2) |\
(Ad fa Aa) | ""e2 (Ac e2) | (Ac ea Aa) | f4 :|
